X:20
T:Bulgarian () 1
M:11/16
N:the 'turn' symbol is a trill
O:Bulgaria 
Z:Richard Robinson 
%%TUNEURL: http://www.leeds.ac.uk/music/Info/RRTuneBk/gettune/0000066d.html
%%ID:0000066d
K:A min
"Am"e2{dc}d2e3 {dc}~d2dc|de{dc}d2 c2B ~A2AG|\
(AB)~c2{dc}d3 ~c2cB|(dG)A2 "Dm"A3 "A"(A2A2) ::
"Am"(AB)~c2{dc}d3 {dc}d2dc|\
e2{dc}d2 c2B (~A2AG)|\
(AB)~c2{dc}d3 ~c2cB|"E"(BG)"Am"A2A3 (A2A2) ::
"Am"(AB)~c2 (cBA) "Em"~B2(BG)|\
"A"~A2"Am"(Ad) (cBA) "E"~B2"Em"(BG)|\
"A"(AB)"Am"~c2 (cBA) "E"~B2"Em"(BG)|\
